# timebase 480
# title "The M.GAKKOU KOUKA"
# copyright "Music Composed by Kenkichi Motoi 2009 Wikimedia version 2012"
# https://electronicmusic.fandom.com/wiki/Music_Macro_Language

A t160
A o3l4
A ed8ce8 gg8er8 aa8>c<a8 g2r
A aa8ga8 >cc8d<r8 ee8de8 c2r
A dd8dd8 dd8dr8 ed8ef8 g2r
A aa8ga8 >cc8<ar8 >dc8de8 d2<r
A >ee8dc8< ab8>cc8< gg8ea8 g2r
A >cc8<ge8 cd8ea8 gg8de8 c2r